svgs/duotone/ruler.svg

<svg xmlns="http://www.w3.org/2000/svg" viewBox="0 0 512 512"><!--! Font Awesome Pro 6.5.1 by @fontawesome - https://fontawesome.com License - https://fontawesome.com/license (Commercial License) Copyright 2023 Fonticons, Inc. --><defs><style>.fa-secondary{opacity:.4}</style></defs><path class="fa-secondary" d="M177.9 494.1c-18.7 18.7-49.1 18.7-67.9 0L17.9 401.9c-18.7-18.7-18.7-49.1 0-67.9l50.7-50.7 48 48c6.2 6.2 16.4 6.2 22.6 0s6.2-16.4 0-22.6l-48-48 41.4-41.4 48 48c6.2 6.2 16.4 6.2 22.6 0s6.2-16.4 0-22.6l-48-48 41.4-41.4 48 48c6.2 6.2 16.4 6.2 22.6 0s6.2-16.4 0-22.6l-48-48 41.4-41.4 48 48c6.2 6.2 16.4 6.2 22.6 0s6.2-16.4 0-22.6l-48-48 50.7-50.7c18.7-18.7 49.1-18.7 67.9 0l92.1 92.1c18.7 18.7 18.7 49.1 0 67.9L177.9 494.1z"/><path class="fa-primary" d="M260.7 91.3l22.6-22.6 48 48c6.2 6.2 6.2 16.4 0 22.6s-16.4 6.2-22.6 0l-48-48zm-64 64l22.6-22.6 48 48c6.2 6.2 6.2 16.4 0 22.6s-16.4 6.2-22.6 0l-48-48zm-64 64l22.6-22.6 48 48c6.2 6.2 6.2 16.4 0 22.6s-16.4 6.2-22.6 0l-48-48zm-64 64l22.6-22.6 48 48c6.2 6.2 6.2 16.4 0 22.6s-16.4 6.2-22.6 0l-48-48z"/></svg>

<svg xmlns="http://www.w3.org/2000/svg" viewBox="0 0 512 512"><!--! Font Awesome Pro 6.1.1 by @fontawesome - https://fontawesome.com License - https://fontawesome.com/license (Commercial License) Copyright 2022 Fonticons, Inc. --><defs><style>.fa-secondary{opacity:.4}</style></defs><path class="fa-primary" d="M260.7 91.31L283.3 68.69L331.3 116.7C337.6 122.9 337.6 133.1 331.3 139.3C325.1 145.6 314.9 145.6 308.7 139.3L260.7 91.31zM196.7 155.3L219.3 132.7L267.3 180.7C273.6 186.9 273.6 197.1 267.3 203.3C261.1 209.6 250.9 209.6 244.7 203.3L196.7 155.3zM132.7 219.3L155.3 196.7L203.3 244.7C209.6 250.9 209.6 261.1 203.3 267.3C197.1 273.6 186.9 273.6 180.7 267.3L132.7 219.3zM68.69 283.3L91.31 260.7L139.3 308.7C145.6 314.9 145.6 325.1 139.3 331.3C133.1 337.6 122.9 337.6 116.7 331.3L68.69 283.3z"/><path class="fa-secondary" d="M177.9 494.1C159.2 512.8 128.8 512.8 110.1 494.1L17.94 401.9C-.8054 383.2-.8054 352.8 17.94 334.1L68.69 283.3L116.7 331.3C122.9 337.6 133.1 337.6 139.3 331.3C145.6 325.1 145.6 314.9 139.3 308.7L91.31 260.7L132.7 219.3L180.7 267.3C186.9 273.6 197.1 273.6 203.3 267.3C209.6 261.1 209.6 250.9 203.3 244.7L155.3 196.7L196.7 155.3L244.7 203.3C250.9 209.6 261.1 209.6 267.3 203.3C273.6 197.1 273.6 186.9 267.3 180.7L219.3 132.7L260.7 91.31L308.7 139.3C314.9 145.6 325.1 145.6 331.3 139.3C337.6 133.1 337.6 122.9 331.3 116.7L283.3 68.69L334.1 17.94C352.8-.8035 383.2-.8035 401.9 17.94L494.1 110.1C512.8 128.8 512.8 159.2 494.1 177.9L177.9 494.1z"/></svg>
